public/assets/trusts-llama/chainlink.svg

<svg fill="none" height="29" viewBox="0 0 111 29" width="111" xmlns="http://www.w3.org/2000/svg"><g fill="#fff"><path d="m12.1297.352051-12.0672 7.000579v14.00117l12.0672 7.0006 12.0674-7.0006v-14.00117zm6.955 18.034649-6.9527 4.0335-6.95277-4.0335v-8.0669l6.95277-4.0335 6.9527 4.0335z"/><path d="m37.4368 21.3682c-1.1983 0-2.2718-.2756-3.2171-.83-.9465-.5533-1.6934-1.352-2.2406-2.3981-.5473-1.0462-.8204-2.3052-.8204-3.7781s.2764-2.7521.8259-3.8016c.5508-1.04841 1.2998-1.84816 2.2496-2.39812.9488-.54997 2.0167-.82439 3.2039-.82439.7714 0 1.4915.11089 2.1537.33043.6633.21954 1.2529.53876 1.7702.95768.5171.41891.9375.93079 1.264 1.5356.3256.6049.5364 1.2926.6344 2.0644h-2.6921c-.0613-.3909-.1794-.7404-.3557-1.0507-.1771-.308-.4001-.5712-.6699-.7885-.2708-.2173-.5786-.382-.9207-.4951-.3445-.11313-.719-.16913-1.1272-.16913-.7177 0-1.3498.18033-1.8983.54103-.5473.3606-.9755.886-1.282 1.5771-.3076.6899-.4616 1.5323-.4616 2.5213s.155 1.8481.4649 2.5359c.3111.6877.737 1.2063 1.282 1.558.5452.3517 1.1738.5276 1.8839.5276.3957 0 .7636-.0538 1.1036-.1613.34-.1064.6466-.2632.9174-.4682.2698-.2039.4973-.4548.68-.7516.1829-.2968.3111-.6373.3836-1.0215h2.6921c-.0791.6407-.2686 1.25-.5695 1.8246-.301.5735-.7023 1.0832-1.2052 1.5256-.5017.4436-1.0925.7919-1.7702 1.0506-.679.2566-1.4381.3854-2.2764.3854v.0033z"/><path d="m47.3114 15.219v5.9601h-2.6097v-13.66299h2.5373v5.19839h.1282c.2361-.5926.6085-1.0608 1.1135-1.4035.5039-.3416 1.1472-.5141 1.9252-.5141.7056 0 1.3243.1523 1.8515.4581.5296.3058.941.746 1.2319 1.3206.2921.5735.437 1.269.437 2.0822v6.519h-2.6197v-6.0788c0-.6608-.1672-1.175-.5016-1.5457-.3345-.3696-.807-.5545-1.4145-.5545-.4082 0-.7672.0885-1.077.2666-.3109.1781-.5551.4301-.7345.7561-.1796.3282-.2688.7247-.2688 1.1974v.0022z"/><path d="m58.5647 21.3819c-.6511 0-1.2331-.1166-1.7469-.3484-.5138-.233-.9187-.5769-1.2141-1.0316-.2954-.4548-.4426-1.0193-.4426-1.6914 0-.5734.1049-1.0517.3157-1.4314.2105-.3798.496-.6855.8583-.9208.3623-.2352.7713-.4132 1.2318-.532.4592-.1187.942-.2027 1.4459-.252.5964-.0616 1.0768-.1176 1.4424-.1691.3656-.0516.6309-.1345.7981-.2476s.2508-.28.2508-.4995v-.046c0-.4592-.1404-.8154-.4191-1.0686-.2797-.2531-.6789-.3808-1.1961-.3808-.5474 0-.9822.1199-1.3055.3629-.322.2408-.5371.5332-.6476.8748l-2.4279-.2665c.1516-.6228.4282-1.1538.826-1.5906.398-.4368.8986-.7706 1.5006-1.0002.602-.2297 1.2863-.345 2.0532-.345.5295 0 1.0458.0627 1.5475.1882.5016.1243.9541.3237 1.36.597.4035.2721.7278.6317.9663 1.0775.2397.4469.3612.9902.3612 1.6331v6.8853h-2.4993v-1.4215h-.0724c-.1594.3047-.3702.5813-.6388.8266-.2675.2453-.5963.438-.9853.5825-.3891.1445-.8429.2161-1.36.2161h-.0035zm.7099-1.8706c.4504 0 .8429-.0896 1.1773-.27.3344-.1803.5964-.4211.7849-.7235.1882-.3025.283-.6374.283-1.0036v-1.147c-.0846.0616-.2106.1165-.3735.1658-.1649.0493-.3499.094-.5573.1332-.2063.0392-.4115.074-.6121.1053-.2007.0303-.3801.0549-.5384.0729-.3466.0492-.6521.1287-.9174.2374-.2653.1109-.4738.2599-.6253.4492-.1517.1893-.2285.4278-.2285.7157 0 .4155.1505.7303.4514.9454.301.2139.6856.3203 1.1538.3203h.0011z"/><path d="m65.8374 21.18v-10.251h2.6098v10.251z"/><path d="m72.7736 15.2191v5.9601h-2.6095v-10.2523h2.5639v1.7877h.1102c.2308-.587.5977-1.0529 1.0993-1.399.5017-.3462 1.1325-.5175 1.8939-.5175.7056 0 1.3222.1523 1.8472.4581.5262.3047.9341.7471 1.2239 1.3239.2888.578.4337 1.2702.4337 2.0767v6.5189h-2.6097v-6.0787c0-.6541-.1683-1.1683-.506-1.5401-.3367-.3719-.8016-.5601-1.3924-.5601-.4013 0-.7568.0885-1.0634.2666-.3078.1781-.5485.4301-.7258.7561-.1771.3281-.2642.7247-.2642 1.1974v.0022z"/><path d="m83.6603 6.84399v14.33611h-2.6095v-14.33611z"/><path d="m85.376 21.18v-10.251h2.6095v10.251z"/><path d="m92.3107 15.2191v5.9601h-2.6095v-10.2523h2.5639v1.7877h.1105c.2305-.587.5974-1.0529 1.099-1.399.5017-.3462 1.1325-.5175 1.8941-.5175.7056 0 1.322.1523 1.8482.4581.5262.3047.9341.7471 1.2229 1.3239.2886.578.4336 1.2702.4336 2.0767v6.5189h-2.6096v-6.0787c0-.6541-.1685-1.1683-.5062-1.5401-.3367-.3719-.8014-.5601-1.3922-.5601-.4013 0-.757.0885-1.0636.2666-.3076.1781-.5485.4301-.7256.7561-.1773.3281-.2655.7247-.2655 1.1974z"/><path d="m106.968 21.1802h3.094l-4.074-5.8122 3.863-4.4401h-3.028l-3.461 4.0077h-.162v-7.41949h-2.611v13.66409h2.611v-3.3469l.818-.9118 2.95 4.2576z"/><path d="m68.4691 6.84399h-2.6097v2.62214h2.6097z"/><path d="m88.0075 6.84399h-2.6096v2.62214h2.6096z"/></g></svg>

<svg xmlns="http://www.w3.org/2000/svg" width="111" height="29" viewBox="0 0 111 29" fill="none">
  <path d="M12.1297 0.352051L0.0625 7.35263V21.3538L12.1297 28.3544L24.1971 21.3538V7.35263L12.1297 0.352051ZM19.0847 18.3867L12.132 22.4202L5.17923 18.3867V10.3198L12.132 6.2863L19.0847 10.3198V18.3867Z" fill="white"/>
  <path d="M37.4368 21.3682C36.2385 21.3682 35.165 21.0926 34.2197 20.5382C33.2732 19.9849 32.5263 19.1862 31.9791 18.1401C31.4318 17.0939 31.1587 15.8349 31.1587 14.362C31.1587 12.8891 31.4351 11.6099 31.9846 10.5604C32.5354 9.51199 33.2844 8.71224 34.2342 8.16228C35.183 7.61231 36.2509 7.33789 37.4381 7.33789C38.2095 7.33789 38.9296 7.44878 39.5918 7.66832C40.2551 7.88786 40.8447 8.20708 41.362 8.626C41.8791 9.04491 42.2995 9.55679 42.626 10.1616C42.9516 10.7665 43.1624 11.4542 43.2604 12.226H40.5683C40.507 11.8351 40.3889 11.4856 40.2126 11.1753C40.0355 10.8673 39.8125 10.6041 39.5427 10.3868C39.2719 10.1695 38.9641 10.0048 38.622 9.8917C38.2775 9.77857 37.903 9.72257 37.4948 9.72257C36.7771 9.72257 36.145 9.9029 35.5965 10.2636C35.0492 10.6242 34.621 11.1496 34.3145 11.8407C34.0069 12.5306 33.8529 13.373 33.8529 14.362C33.8529 15.351 34.0079 16.2101 34.3178 16.8979C34.6289 17.5856 35.0548 18.1042 35.5998 18.4559C36.145 18.8076 36.7736 18.9835 37.4837 18.9835C37.8794 18.9835 38.2473 18.9297 38.5873 18.8222C38.9273 18.7158 39.2339 18.559 39.5047 18.354C39.7745 18.1501 40.002 17.8992 40.1847 17.6024C40.3676 17.3056 40.4958 16.9651 40.5683 16.5809H43.2604C43.1813 17.2216 42.9918 17.8309 42.6909 18.4055C42.3899 18.979 41.9886 19.4887 41.4857 19.9311C40.984 20.3747 40.3932 20.723 39.7155 20.9817C39.0365 21.2383 38.2774 21.3671 37.4391 21.3671V21.3704L37.4368 21.3682Z" fill="white"/>
  <path d="M47.3114 15.219V21.1791H44.7017V7.51611H47.239V12.7145H47.3672C47.6033 12.1219 47.9757 11.6537 48.4807 11.311C48.9846 10.9694 49.6279 10.7969 50.4059 10.7969C51.1115 10.7969 51.7302 10.9492 52.2574 11.255C52.787 11.5608 53.1984 12.001 53.4893 12.5756C53.7814 13.1491 53.9263 13.8446 53.9263 14.6578V21.1768H51.3066V15.098C51.3066 14.4372 51.1394 13.923 50.805 13.5523C50.4705 13.1827 49.998 12.9978 49.3905 12.9978C48.9823 12.9978 48.6233 13.0863 48.3135 13.2644C48.0026 13.4425 47.7584 13.6945 47.579 14.0205C47.3994 14.3487 47.3102 14.7452 47.3102 15.2179V15.2201L47.3114 15.219Z" fill="white"/>
  <path d="M58.5647 21.3819C57.9136 21.3819 57.3316 21.2653 56.8178 21.0335C56.304 20.8005 55.8991 20.4566 55.6037 20.0019C55.3083 19.5471 55.1611 18.9826 55.1611 18.3105C55.1611 17.7371 55.266 17.2588 55.4768 16.8791C55.6873 16.4993 55.9728 16.1936 56.3351 15.9583C56.6974 15.7231 57.1064 15.5451 57.5669 15.4263C58.0261 15.3076 58.5089 15.2236 59.0128 15.1743C59.6092 15.1127 60.0896 15.0567 60.4552 15.0052C60.8208 14.9536 61.0861 14.8707 61.2533 14.7576C61.4205 14.6445 61.5041 14.4776 61.5041 14.2581V14.2121C61.5041 13.7529 61.3637 13.3967 61.085 13.1435C60.8053 12.8904 60.4061 12.7627 59.8889 12.7627C59.3415 12.7627 58.9067 12.8826 58.5834 13.1256C58.2614 13.3664 58.0463 13.6588 57.9358 14.0004L55.5079 13.7339C55.6595 13.1111 55.9361 12.5801 56.3339 12.1433C56.7319 11.7065 57.2325 11.3727 57.8345 11.1431C58.4365 10.9134 59.1208 10.7981 59.8877 10.7981C60.4172 10.7981 60.9335 10.8608 61.4352 10.9863C61.9368 11.1106 62.3893 11.31 62.7952 11.5833C63.1987 11.8554 63.523 12.215 63.7615 12.6608C64.0012 13.1077 64.1227 13.651 64.1227 14.2939V21.1792H61.6234V19.7577H61.551C61.3916 20.0624 61.1808 20.339 60.9122 20.5843C60.6447 20.8296 60.3159 21.0223 59.9269 21.1668C59.5378 21.3113 59.084 21.3829 58.5669 21.3829H58.5634L58.5647 21.3819ZM59.2746 19.5113C59.725 19.5113 60.1175 19.4217 60.4519 19.2413C60.7863 19.061 61.0483 18.8202 61.2368 18.5178C61.425 18.2153 61.5198 17.8804 61.5198 17.5142V16.3672C61.4352 16.4288 61.3092 16.4837 61.1463 16.533C60.9814 16.5823 60.7964 16.627 60.589 16.6662C60.3827 16.7054 60.1775 16.7402 59.9769 16.7715C59.7762 16.8018 59.5968 16.8264 59.4385 16.8444C59.0919 16.8936 58.7864 16.9731 58.5211 17.0818C58.2558 17.1927 58.0473 17.3417 57.8958 17.531C57.7441 17.7203 57.6673 17.9588 57.6673 18.2467C57.6673 18.6622 57.8178 18.977 58.1187 19.1921C58.4197 19.406 58.8043 19.5124 59.2725 19.5124H59.2736L59.2746 19.5113Z" fill="white"/>
  <path d="M65.8374 21.18V10.929H68.4472V21.18H65.8374Z" fill="white"/>
  <path d="M72.7736 15.2191V21.1792H70.1641V10.9269H72.728V12.7146H72.8382C73.069 12.1276 73.4359 11.6617 73.9375 11.3156C74.4392 10.9694 75.07 10.7981 75.8314 10.7981C76.537 10.7981 77.1536 10.9504 77.6786 11.2562C78.2048 11.5609 78.6127 12.0033 78.9025 12.5801C79.1913 13.1581 79.3362 13.8503 79.3362 14.6568V21.1757H76.7265V15.097C76.7265 14.4429 76.5582 13.9287 76.2205 13.5569C75.8838 13.185 75.4189 12.9968 74.8281 12.9968C74.4268 12.9968 74.0713 13.0853 73.7647 13.2634C73.4569 13.4415 73.2162 13.6935 73.0389 14.0195C72.8618 14.3476 72.7747 14.7442 72.7747 15.2169V15.2191H72.7736Z" fill="white"/>
  <path d="M83.6603 6.84399V21.1801H81.0508V6.84399H83.6603Z" fill="white"/>
  <path d="M85.376 21.18V10.929H87.9855V21.18H85.376Z" fill="white"/>
  <path d="M92.3107 15.2191V21.1792H89.7012V10.9269H92.2651V12.7146H92.3756C92.6061 12.1276 92.973 11.6617 93.4746 11.3156C93.9763 10.9694 94.6071 10.7981 95.3687 10.7981C96.0743 10.7981 96.6907 10.9504 97.2169 11.2562C97.7431 11.5609 98.151 12.0033 98.4398 12.5801C98.7284 13.1581 98.8734 13.8503 98.8734 14.6568V21.1757H96.2638V15.097C96.2638 14.4429 96.0953 13.9287 95.7576 13.5569C95.4209 13.185 94.9562 12.9968 94.3654 12.9968C93.9641 12.9968 93.6084 13.0853 93.3018 13.2634C92.9942 13.4415 92.7533 13.6935 92.5762 14.0195C92.3989 14.3476 92.3107 14.7442 92.3107 15.2169V15.2191Z" fill="white"/>
  <path d="M106.968 21.1802H110.062L105.988 15.368L109.851 10.9279H106.823L103.362 14.9356H103.2V7.51611H100.589V21.1802H103.2V17.8333L104.018 16.9215L106.968 21.1791V21.1802Z" fill="white"/>
  <path d="M68.4691 6.84399H65.8594V9.46613H68.4691V6.84399Z" fill="white"/>
  <path d="M88.0075 6.84399H85.3979V9.46613H88.0075V6.84399Z" fill="white"/>
</svg>
